X:1
T:Another Look at the Cross
T:Another Look at the Cross
T:R. L. Werry, 1893
T:Public Domain Courtesy of the Cyber Hymnal™
T:Public Domain Courtesy of the Cyber Hymnal™
C:R. L. Werry, 1893
Z:Public Domain
Z:Courtesy of the Cyber Hymnal™
%%score ( 1 2 ) ( 3 4 )
L:1/8
Q:1/4=105
M:4/4
K:D
V:1 treble 
V:2 treble 
V:3 bass 
V:4 bass 
V:1
 [FA]>[EG] | [DF]2 [FA]2 [FA]2 [Fd]>[Ac] | [GB]2 [Gd]2 [Gd]2 [Ac]>[GB] | [FA]2 [GB]2 [FA]2 [DF]2 | %4
w: 1.~There’s a|voice I hear, and it|calls me near To the|Sav- ior’s bleed- ing|
w: 2.~There is|One a- bove, look- ing|down in love, On a|world deep sunk in|
w: 3.~There’s a|hand stretched out un- to|souls in doubt, And it|saves from sin and|
w: 4.~O the|bit- ter cries, and the|long- ing eyes, That we|dai- ly hear and|
w: 5.~O the|joy to stand on the|gold- en strand, Right be-|fore the great white|
 [CE]6 [CA]>[EG] | [DF]2 [FA]2 [FA]2 [Fd]>[Ac] | [GB]2 ([Gd]>[Gd]) [Gd]2 [Ac]>[GB] | %7
w: side; And it|says to me, “You may|now be * free, If you|
w: sin; And I|hear Him call to His|child- ren * all: “Who will|
w: woe; In His|riv- en side is a|fount- ain * wide, Where the|
w: see; For our|love they plead, and our|help they * need; Shall we|
w: throne; There to|meet some soul we have|helped to~the * goal, And to|
 [FA]>[GB] [FA]>[EG] [DF]2 [CE]2 | D6 ||"^Refrain" !fermata![FA]>[EG] | %10
w: plunge be- neath the crim- son|tide.”||
w: go and bring the lost ones|in?”||
w: vil- est of the vile may|go.|O, I’ll|
w: sav- iors of the lost ones|be?||
w: hear the Sav- ior say, “Well|done.”||
 [DF]>[CE] [DF]>[EG] [FA]2 [Fd]>[Ac] | [GB]2 [Dd]2 [DA]>[CG] [DF]>[DF] | %12
w: ||
w: ||
w: take a- no- ther look at the|cross of Cal- va- ry, For|
w: ||
w: ||
 [CE]>[^B,^D] [CE]>[=DF] [EG]2 [DF]>[CE] | [DF]2 [DB]2 !fermata![DA]2 [FA]>[EG] | %14
w: ||
w: ||
w: sure- ly He can cleanse by the|pre- cious blood; There is|
w: ||
w: ||
 [DF]>[CE] [DF]>[EG] [FA]2 [Fd]>[Ac] | [GB]>[G^A] [GB]>[Gc] !fermata![Gd]2 [=Ac]>[GB] | %16
w: ||
w: ||
w: pur- i- ty and power, There is|vic- tory ev- ery hour, When we’re|
w: ||
w: ||
 [FA]>[DF] D>[DE] [DF]2 [CE]2 | D6 |] %18
w: ||
w: ||
w: liv- ing ’neath the smile of|God.|
w: ||
w: ||
V:2
 x2 | x8 | x8 | x8 | x8 | x8 | x8 | x8 | D6 || x2 | x8 | x8 | x8 | x8 | x8 | x8 | x2 D3/2 x9/2 | %17
 D6 |] %18
V:3
 [D,A,]>[D,A,] | [D,A,]2 [D,D]2 [D,D]2 [D,D]>[F,D] | [G,D]2 [G,B,]2 [G,B,]2 [G,C]>[G,D] | %3
 [D,D]2 [D,D]2 [D,D]2 [D,A,]2 | [A,,A,]6 [A,,A,]>[A,,A,] | [D,A,]2 [D,D]2 [D,D]2 [D,D]>[F,D] | %6
 [G,D]2 ([G,B,]>[G,B,]) [G,B,]2 [G,C]>[G,D] | [A,D]>[A,D] [A,D]>A, [A,,A,]2 [A,,G,]2 | [D,F,]6 || %9
 !fermata![D,A,]>[D,A,] | [D,A,]>[D,A,] [D,A,]>[D,A,] [D,D]2 [D,D]>[F,D] | %11
 [G,D]2 [G,B,]2 [F,A,]>[E,A,] [D,A,]>[D,A,] | %12
 [A,,A,]>[A,,A,] [A,,A,]>[A,,A,] [A,,A,]2 [A,,A,]>[A,,A,] | %13
 [D,A,]2 [D,G,]2 !fermata![D,F,]2 [D,A,]>[D,A,] | [D,A,]>[D,A,] [D,A,]>[D,A,] [D,D]2 [D,D]>[F,D] | %15
 [G,D]>[G,C] [G,D]>[G,^A,] !fermata![G,B,]2 [G,C]>[G,D] | %16
 [D,D]>[D,A,] [D,F,]>[B,,^G,] [A,,A,]2 [A,,=G,]2 | [D,F,]6 |] %18
V:4
 x2 | x8 | x8 | x8 | x8 | x8 | x8 | x7/2 A,/ x4 | x6 || x2 | x8 | x8 | x8 | x8 | x8 | x8 | x8 | %17
 x6 |] %18

